X: 1
T: ARKANSAS TRAVELLER -- REEL
B: Cole's 1000 Fiddle Tunes
R: reel
M: 2/4
L: 1/16
Z: Contributed 20000418030910 by John Chambers jcsd:world.std.com
K: D
((3A,B,C) |\
DFED B,2B,2 | A,2A,2 D4 | EEE2 FFF2 | DFED B,2A,2 |
DFED B,2B,2 | A,2A,2 D4 | dcdA BdAG | FEDC D2z2 :|
agfa gfeg | fedf edcA | dcdf edeg | fedf e2fg |
agfa gfeg | fedf edcA | dcdA BdAG | FEDC D4 :|
